X: 141
T: Tobie, Panie, pókim żyw, ja muszę dziękować,
C: Mikołaj Gomółka
%%abc-version 2.0
%%abcx-abcm2ps-target-version 5.9.1 (29 Sep 2008)
%%abc-creator hum2abc beta
%%abcx-conversion-date 2021/10/04 07:59:09
%%abc-edited-by Anna Matuszewska
%%abcx-initial-encoding-date 2020-02-24
%%humdrum-veritas 1190371460
%%humdrum-veritas-data 1263505495
%%linebreak <none>
%%barnumbers 0
L: 1/4
M: C|
N: Derived from pl-wn--sd-xvi-qu-273--144_gomolka-mikolaj--tobie-panie-pokim-zyw-ja-musze-dziekowac.krn
%%staves [1 2 3 4]
V: 1
V: 2 clef=alto
V: 3 clef=alto
V: 4 clef=bass
K: F
[V:1] G4B2c2 [I:setbarnb 3][|] 
[V:2] D4_E2E2 [|] 
[V:3] G4G2G2 [|] 
[V:4] G,4_E,2C,2 [|] 
[V:1] A2d2d3c [|] 
[V:2] D2D4D3 [|] 
[V:3] F2>E2DCB,A, [|] 
[V:4] D,2>C,2B,,A,,G,,2 [|] 
[V:1] B2dcBAG3 [|] 
[V:2] CB,A,G,A,B,3 [|] 
[V:3] G,A,B,CD2_E4 [|] 
[V:4] G,2>F,2E,2E,2 [|] 
[V:1] AB4A2 [|] 
[V:2] CDE2<F2E [|] 
[V:3] D2C4 [|] 
[V:4] E,2B,,2F,2F,,2 [|] 
[V:1] B2d2d2d2 [|] 
[V:2] D2B2B3A [|] 
[V:3] B,2F2F2D2 [|] 
[V:4] B,,2B,2B,2B,2 [|] 
[V:1] c2>B2A2A2 [|] 
[V:2] GFG2C2DE [|] 
[V:3] EF2E2<F2E [|] 
[V:4] C2C,2F,E,D,C, [|] 
[V:1] B2>A2G2G2 [|] 
[V:2] F2>E2D4 [|] 
[V:3] D2>C2B,2B,2 [|] 
[V:4] B,,2F,,2G,,A,,B,,C, [|] 
[V:1] ^F2A2A2F2 [|] 
[V:2] D2D2C2B,2 [|] 
[V:3] A,2A,B,C2D2 [|] 
[V:4] D,E,F,G,A,2B,2 [|] 
[V:1] GAB4A2 [|] 
[V:2] E2DE2<F2E [|] 
[V:3] B,CDB,CDC2 [|] 
[V:4] G,4F,2F,,2 [|] 
[V:1] B2c4A2 [|] 
[V:2] D2F4F2 [|] 
[V:3] B,2A,2>B,2C2 [|] 
[V:4] B,,2F,4F,2 [|] 
[V:1] d2d2c4 [|] 
[V:2] F2F2EF2E/F/ [|] 
[V:3] D2A,B,CD2C [|] 
[V:4] D,E,F,G,A,4 [|] 
[V:1] =B2c2A2A2 [|] 
[V:2] G2G2D3E [|] 
[V:3] D2E2F3E [|] 
[V:4] G,2C,2D,3C, [|] 
[V:1] B4A2B2 [|] 
[V:2] F4F2F2 [|] 
[V:3] D4C2D2 [|] 
[V:4] B,,C,D,E,F,2B,,2 [|] 
[V:1] G2G4F2 [|] 
[V:2] _E2E2D3C [|] 
[V:3] B,2CB,A,G,A,2 [|] 
[V:4] E,2C,2D,4 [|] 
[V:1] G8 [|] 
[V:2] =B,8 [|] 
[V:3] G,8 [|] 
[V:4] G,,8 [|] 


